images/ic_sun.svg

<svg width="24" height="24" viewBox="0 0 24 24" fill="none" xmlns="http://www.w3.org/2000/svg">
<rect x="12.7283" width="3.98892" height="1.79695" rx="0.898474" transform="rotate(89.3117 12.7283 0)" fill="#1B76BC"/>
<rect x="12.7283" y="19.9897" width="3.98892" height="1.79695" rx="0.898474" transform="rotate(89.3117 12.7283 19.9897)" fill="#1B76BC"/>
<rect x="22.6831" y="6.75732" width="3.98892" height="1.79695" rx="0.898474" transform="rotate(149.312 22.6831 6.75732)" fill="#1B76BC"/>
<rect x="5.37158" y="16.7522" width="3.98892" height="1.79695" rx="0.898474" transform="rotate(149.312 5.37158 16.7522)" fill="#1B76BC"/>
<rect x="21.8086" y="18.7573" width="3.98892" height="1.79695" rx="0.898474" transform="rotate(-150.688 21.8086 18.7573)" fill="#1B76BC"/>
<rect x="4.49683" y="8.76221" width="3.98892" height="1.79695" rx="0.898474" transform="rotate(-150.688 4.49683 8.76221)" fill="#1B76BC"/>
<path fill-rule="evenodd" clip-rule="evenodd" d="M11.8535 17.75C15.0293 17.75 17.6037 15.1755 17.6037 11.9997C17.6037 8.82398 15.0293 6.24951 11.8535 6.24951C8.67774 6.24951 6.10327 8.82398 6.10327 11.9997C6.10327 15.1755 8.67774 17.75 11.8535 17.75ZM11.8536 15.953C14.0369 15.953 15.8068 14.183 15.8068 11.9997C15.8068 9.81635 14.0369 8.0464 11.8536 8.0464C9.67021 8.0464 7.90027 9.81635 7.90027 11.9997C7.90027 14.183 9.67021 15.953 11.8536 15.953Z" fill="#1B76BC"/>
</svg>

<?xml version="1.0" encoding="UTF-8"?>
<svg viewBox="0 0 24 24" xmlns="http://www.w3.org/2000/svg">
<rect transform="rotate(89.312 12.728 0)" x="12.728" width="3.9889" height="1.797" rx=".89847" fill="#1B76BC"/>
<rect transform="rotate(89.312 12.728 19.99)" x="12.728" y="19.99" width="3.9889" height="1.797" rx=".89847" fill="#1B76BC"/>
<rect transform="rotate(149.31 22.683 6.7573)" x="22.683" y="6.7573" width="3.9889" height="1.797" rx=".89847" fill="#1B76BC"/>
<rect transform="rotate(149.31 5.3716 16.752)" x="5.3716" y="16.752" width="3.9889" height="1.797" rx=".89847" fill="#1B76BC"/>
<rect transform="rotate(209.31 21.809 18.757)" x="21.809" y="18.757" width="3.9889" height="1.797" rx=".89847" fill="#1B76BC"/>
<rect transform="rotate(209.31 4.4968 8.7622)" x="4.4968" y="8.7622" width="3.9889" height="1.797" rx=".89847" fill="#1B76BC"/>
<path d="m11.854 17.75c3.1758 0 5.7502-2.5745 5.7502-5.7503 0-3.1757-2.5744-5.7502-5.7502-5.7502-3.1758 0-5.7502 2.5745-5.7502 5.7502 0 3.1758 2.5745 5.7503 5.7502 5.7503zm1e-4 -1.797c2.1833 0 3.9532-1.77 3.9532-3.9533 0-2.1834-1.7699-3.9533-3.9532-3.9533-2.1834 0-3.9533 1.77-3.9533 3.9533 0 2.1833 1.7699 3.9533 3.9533 3.9533z" clip-rule="evenodd" fill="#1B76BC" fill-rule="evenodd"/>
</svg>
